SF_Symbols/forward.end.svg

<?xml version="1.0" encoding="UTF-8"?>
<svg xmlns="http://www.w3.org/2000/svg" xmlns:xlink="http://www.w3.org/1999/xlink" width="24" height="24" viewBox="0 0 24 24" version="1.1">
<g id="surface1">
<path style=" stroke:none;fill-rule:nonzero;fill:rgb(100%,100%,100%);fill-opacity:1;" d="M 21.199219 23.691406 C 21.511719 23.691406 21.78125 23.585938 22.003906 23.371094 C 22.226562 23.15625 22.339844 22.894531 22.339844 22.582031 L 22.339844 2.691406 C 22.339844 2.371094 22.226562 2.101562 22.003906 1.886719 C 21.78125 1.675781 21.511719 1.566406 21.199219 1.566406 C 20.878906 1.566406 20.605469 1.675781 20.382812 1.886719 C 20.160156 2.101562 20.050781 2.371094 20.050781 2.691406 L 20.050781 22.582031 C 20.050781 22.894531 20.160156 23.15625 20.382812 23.371094 C 20.605469 23.585938 20.878906 23.691406 21.199219 23.691406 Z M 3.574219 23.15625 C 3.851562 23.15625 4.113281 23.113281 4.351562 23.023438 C 4.59375 22.941406 4.847656 22.820312 5.117188 22.660156 L 18.761719 14.625 C 19.238281 14.339844 19.582031 14.03125 19.792969 13.699219 C 20.007812 13.371094 20.117188 13.011719 20.117188 12.628906 C 20.117188 12.246094 20.007812 11.886719 19.792969 11.558594 C 19.582031 11.226562 19.238281 10.917969 18.761719 10.632812 L 5.117188 2.597656 C 4.839844 2.4375 4.582031 2.316406 4.339844 2.238281 C 4.105469 2.148438 3.851562 2.101562 3.574219 2.101562 C 3.050781 2.101562 2.59375 2.300781 2.210938 2.691406 C 1.835938 3.085938 1.648438 3.65625 1.648438 4.40625 L 1.648438 20.851562 C 1.648438 21.601562 1.835938 22.175781 2.210938 22.566406 C 2.59375 22.960938 3.050781 23.15625 3.574219 23.15625 Z M 4.164062 20.679688 C 4.066406 20.679688 3.976562 20.648438 3.898438 20.585938 C 3.824219 20.511719 3.789062 20.410156 3.789062 20.277344 L 3.789062 4.980469 C 3.789062 4.847656 3.824219 4.75 3.898438 4.6875 C 3.976562 4.617188 4.066406 4.582031 4.164062 4.582031 C 4.210938 4.582031 4.257812 4.589844 4.3125 4.605469 C 4.367188 4.625 4.425781 4.65625 4.488281 4.699219 L 17.222656 12.253906 C 17.410156 12.363281 17.503906 12.488281 17.503906 12.628906 C 17.503906 12.773438 17.410156 12.898438 17.222656 13.003906 L 4.488281 20.558594 C 4.425781 20.601562 4.367188 20.632812 4.3125 20.652344 C 4.257812 20.667969 4.210938 20.679688 4.164062 20.679688 Z M 4.164062 20.679688 "/>
</g>
</svg>

<svg xmlns="http://www.w3.org/2000/svg" width="24" height="24"><path style="stroke:none;fill-rule:nonzero;fill:#fff;fill-opacity:1" d="M21.2 23.691c.312 0 .581-.105.804-.32.223-.215.336-.476.336-.789V2.692c0-.32-.113-.59-.336-.805a1.14 1.14 0 0 0-.805-.32c-.32 0-.594.109-.816.32-.219.21-.34.5-.332.804v19.891c0 .313.11.574.332.79.222.214.496.32.816.32Zm-17.626-.535c.278 0 .54-.043.778-.133.242-.082.496-.203.765-.363l13.645-8.035c.476-.285.82-.594 1.031-.926a1.924 1.924 0 0 0 0-2.14c-.211-.332-.555-.641-1.031-.926L5.117 2.598a4.122 4.122 0 0 0-.777-.36 2.14 2.14 0 0 0-.766-.136c-.523 0-.98.199-1.363.59-.375.394-.563.964-.563 1.714v16.446c0 .75.188 1.324.563 1.714.383.395.84.59 1.363.59Zm.59-2.476a.409.409 0 0 1-.266-.094c-.074-.074-.109-.176-.109-.309V4.98c0-.132.035-.23.11-.293a.4.4 0 0 1 .265-.105c.05 0 .102.008.149.023.054.02.113.051.175.094l12.735 7.555c.187.11.28.234.28.375 0 .144-.093.27-.28.375L4.488 20.559a.76.76 0 0 1-.176.093.623.623 0 0 1-.148.028Zm0 0"/></svg>
